X: 441
%
U:~=!turn!
T: Moy Hall
C:
O:Scotland
B:Keith Norman MacDonald : "The Skye collection of the best reels & strathspeys extant" : 1887
Z:Ralph Palmer
R:Reel
M:C
L:1/8
K:C
G | c2 ec GcEC | FDAD dDAB | c2 ec GcGC | G,CB,D ECCG | c2 ec GcEC |
FDAD dDAB | c2 ec GcEF | GcBd ecc || f | ecgc aceg | fdad bdfa |
ecgc acec | GcBd eccf | ecgc aceg | fdad bdfa | ecgc ecGE | G,CB,D ECC |]


